findly-builder/apps/searchassist/src/assets/images/source-icos/inprogress-blue.svg

<svg width="14" height="14" viewBox="0 0 14 14" fill="none" xmlns="http://www.w3.org/2000/svg">
<path d="M6.49996 10.7693V14H7.49996V10.7693H6.49996ZM9.29349 10.0006L11.596 12.3031L12.3031 11.596L10.0006 9.29349L9.29349 10.0006ZM13.9999 6.49996H10.7692V7.49996H13.9999V6.49996ZM6.49996 0V2.15385H7.49996V0H6.49996ZM1.69689 2.40399L2.78781 3.49492L3.49492 2.78781L2.40399 1.69689L1.69689 2.40399ZM0 7.49996H1.07692V6.49996H0V7.49996ZM2.40402 12.3031L3.16541 11.5417L2.4583 10.8346L1.69692 11.596L2.40402 12.3031ZM11.5959 1.69689L9.69732 3.5955L10.4044 4.30261L12.303 2.40399L11.5959 1.69689Z" fill="#0D6EFD"/>
</svg>

<svg width="14" height="14" fill="none" xmlns="http://www.w3.org/2000/svg"><path d="M6.5 10.77V14h1v-3.23h-1ZM9.293 10l2.303 2.303.707-.707-2.302-2.303-.708.708ZM14 6.5h-3.23v1H14v-1ZM6.5 0v2.154h1V0h-1ZM1.697 2.404l1.09 1.09.708-.706-1.091-1.091-.707.707ZM0 7.5h1.077v-1H0v1Zm2.404 4.803.761-.761-.707-.707-.761.761.707.707Zm9.192-10.606L9.697 3.595l.707.708 1.899-1.899-.707-.707Z" fill="#0D6EFD"/></svg>
